ui/StatusQ/src/assets/img/icons/communities/menu/transfer-ownership.svg

<svg fill="none" height="16" viewBox="0 0 16 16" width="16" xmlns="http://www.w3.org/2000/svg"><g fill="#ff2d55"><path d="m4.31311 8.31311c.19527-.19526.51185-.19526.70711 0 .19526.19527.19526.51185 0 .70711l-1.24408 1.24408c-.20999.21-.06126.569.23571.569h8.65485c.2761 0 .5.2239.5.5 0 .2762-.2239.5-.5.5h-8.65486c-.29696 0-.44569.3591-.2357.5691l1.24408 1.244c.19526.1953.19526.5119 0 .7072-.19526.1952-.51184.1952-.70711 0l-2.66666-2.6667c-.19527-.1953-.19527-.5119 0-.7071z"/><path d="m11.6869 1.64645c-.1953-.19527-.5119-.19527-.7071 0-.1953.19526-.1953.51184 0 .7071l1.2441 1.24408c.2099.20999.0612.56904-.2357.56904h-8.65487c-.27614 0-.5.22385-.5.5 0 .27614.22386.5.5.5h8.65487c.2969 0 .4456.35904.2357.56903l-1.2441 1.24408c-.1953.19526-.1953.51184 0 .70711.1952.19526.5118.19526.7071 0l2.6667-2.66667c.1952-.19526.1952-.51184 0-.70711z"/></g></svg>

<svg width="16" height="16" viewBox="0 0 16 16" fill="none" xmlns="http://www.w3.org/2000/svg">
<path d="M4.31311 8.31311C4.50838 8.11785 4.82496 8.11785 5.02022 8.31311C5.21548 8.50838 5.21548 8.82496 5.02022 9.02022L3.77614 10.2643C3.56615 10.4743 3.71488 10.8333 4.01185 10.8333H12.6667C12.9428 10.8333 13.1667 11.0572 13.1667 11.3333C13.1667 11.6095 12.9428 11.8333 12.6667 11.8333H4.01184C3.71488 11.8333 3.56615 12.1924 3.77614 12.4024L5.02022 13.6464C5.21548 13.8417 5.21548 14.1583 5.02022 14.3536C4.82496 14.5488 4.50838 14.5488 4.31311 14.3536L1.64645 11.6869C1.45118 11.4916 1.45118 11.175 1.64645 10.9798L4.31311 8.31311Z" fill="#FF2D55"/>
<path d="M11.6869 1.64645C11.4916 1.45118 11.175 1.45118 10.9798 1.64645C10.7845 1.84171 10.7845 2.15829 10.9798 2.35355L12.2239 3.59763C12.4338 3.80762 12.2851 4.16667 11.9882 4.16667H3.33333C3.05719 4.16667 2.83333 4.39052 2.83333 4.66667C2.83333 4.94281 3.05719 5.16667 3.33333 5.16667H11.9882C12.2851 5.16667 12.4338 5.52571 12.2239 5.7357L10.9798 6.97978C10.7845 7.17504 10.7845 7.49162 10.9798 7.68689C11.175 7.88215 11.4916 7.88215 11.6869 7.68689L14.3536 5.02022C14.5488 4.82496 14.5488 4.50838 14.3536 4.31311L11.6869 1.64645Z" fill="#FF2D55"/>
</svg>
